X: 10042
T: JANE'S MARCH
C: Bob McQuillen 19 Oct 93
B: Bob's Note Book 10 #19 Oct 93
%R: march
Z: 2020 John Chambers <jc:trillian.mit.edu>
M: C
L: 1/4
K: G
D \
| G>A Bd | g b2 a | ge e>d | e3 d | e>d ef | gd B>d | e>d ce | d3 B/A/ |
| G>A Bd | g b2 a | g>e ga | b3 a | ge eg/e/ | dg gd/c/ | BA GF | G3 ||
|| F \
| E>F GA | Be ee/f/ | ge fd | ed/c/ BG | E>F GA | Be ee/f/ | ga/g/ f/e/d | e2 e>f |
| g>d Bc/d/ | ec AB/c/ | dB c/B/A/B/ | GE EG/E/ | DB AG/A/ | Bd e/ge/ | dB A>G | G3 :|
%%begintext align
%% Jane Orzechowski lives up in
%% Newport, NH with Peter O. and five neat kids - She played fiddle
%% with "Greengate" and other for several years, and is most recently
%% a member of "Old New England", along with Deanna Stiles on flute
%% and yours truly on piano. We are having a wonderful time together,
%% and I'm glad she has her own march (note please: John Phillips Souze
%% I'm _NOT_!)
%%endtext

%%sep 1 1 500

%%sep 1 1 500

